packages/assets/static/images/icons/stack-minus.svg

<svg width="24" height="24" viewBox="0 0 24 24" xmlns="http://www.w3.org/2000/svg">
<path d="M21.2728 11.6254C21.3719 11.7973 21.3988 12.0015 21.3476 12.1932C21.2965 12.3849 21.1715 12.5485 21 12.6482L12 17.8982C11.8853 17.9651 11.7549 18.0003 11.6222 18.0003C11.4894 18.0003 11.3591 17.9651 11.2444 17.8982L2.24438 12.6482C2.07534 12.5466 1.95311 12.3826 1.90416 12.1915C1.8552 12.0005 1.88346 11.7979 1.98281 11.6275C2.08217 11.4572 2.24462 11.3328 2.435 11.2813C2.62537 11.2299 2.82836 11.2555 3 11.3526L11.625 16.3823L20.25 11.3526C20.4219 11.2535 20.6261 11.2266 20.8177 11.2778C21.0094 11.3289 21.1731 11.4539 21.2728 11.6254ZM1.875 7.50041C1.8753 7.36905 1.9101 7.24007 1.97591 7.12638C2.04172 7.01269 2.13624 6.91828 2.25 6.8526L11.25 1.6026C11.3647 1.53573 11.4951 1.50049 11.6278 1.50049C11.7606 1.50049 11.8909 1.53573 12.0056 1.6026L21.0056 6.8526C21.1188 6.91865 21.2128 7.01322 21.2781 7.12689C21.3433 7.24055 21.3777 7.36934 21.3777 7.50041C21.3777 7.63149 21.3433 7.76028 21.2781 7.87394C21.2128 7.9876 21.1188 8.08217 21.0056 8.14823L12.0056 13.3982C11.8909 13.4651 11.7606 13.5003 11.6278 13.5003C11.4951 13.5003 11.3647 13.4651 11.25 13.3982L2.25 8.14823C2.13624 8.08255 2.04172 7.98814 1.97591 7.87445C1.9101 7.76076 1.8753 7.63178 1.875 7.50041ZM4.11375 7.50041L11.625 11.8823L19.1362 7.50041L11.625 3.11854L4.11375 7.50041ZM21.375 18.0004H16.875C16.6761 18.0004 16.4853 18.0794 16.3447 18.2201C16.204 18.3607 16.125 18.5515 16.125 18.7504C16.125 18.9493 16.204 19.1401 16.3447 19.2807C16.4853 19.4214 16.6761 19.5004 16.875 19.5004H21.375C21.5739 19.5004 21.7647 19.4214 21.9053 19.2807C22.046 19.1401 22.125 18.9493 22.125 18.7504C22.125 18.5515 22.046 18.3607 21.9053 18.2201C21.7647 18.0794 21.5739 18.0004 21.375 18.0004ZM12.75 20.2279L11.625 20.8842L3 15.8526C2.82923 15.7676 2.63248 15.7508 2.44979 15.8057C2.2671 15.8607 2.1122 15.9831 2.01663 16.1482C1.92106 16.3133 1.89199 16.5087 1.93535 16.6944C1.9787 16.8802 2.09122 17.0425 2.25 17.1482L11.25 22.3982C11.3647 22.4651 11.4951 22.5003 11.6278 22.5003C11.7606 22.5003 11.8909 22.4651 12.0056 22.3982L13.5056 21.5235C13.5921 21.4746 13.6679 21.409 13.7288 21.3306C13.7897 21.2521 13.8344 21.1623 13.8603 21.0665C13.8862 20.9706 13.8929 20.8705 13.8798 20.7721C13.8667 20.6736 13.8342 20.5787 13.7842 20.4929C13.7341 20.4071 13.6676 20.3321 13.5883 20.2723C13.509 20.2124 13.4187 20.1689 13.3225 20.1442C13.2263 20.1196 13.1261 20.1143 13.0278 20.1287C12.9296 20.143 12.8351 20.1768 12.75 20.2279Z"/>
</svg>

<svg viewBox="0 0 24 24" xmlns="http://www.w3.org/2000/svg" aria-hidden="true" fill="currentColor"><path d="M21.273 11.625A.75.75 0 0 1 21 12.648l-9 5.25a.75.75 0 0 1-.756 0l-9-5.25A.75.75 0 0 1 3 11.353l8.625 5.03 8.625-5.03a.75.75 0 0 1 1.023.272M1.875 7.5a.75.75 0 0 1 .375-.647l9-5.25a.75.75 0 0 1 .756 0l9 5.25a.75.75 0 0 1 0 1.295l-9 5.25a.75.75 0 0 1-.756 0l-9-5.25a.75.75 0 0 1-.375-.648m2.239 0 7.511 4.382L19.136 7.5l-7.511-4.38zM21.375 18h-4.5a.75.75 0 1 0 0 1.5h4.5a.75.75 0 1 0 0-1.5m-8.625 2.228-1.125.656L3 15.853a.75.75 0 0 0-.75 1.295l9 5.25a.75.75 0 0 0 .756 0l1.5-.875a.75.75 0 1 0-.756-1.295"/></svg>
